svg/font-size.svg

<svg xmlns="http://www.w3.org/2000/svg" width="100" height="100" viewBox="0 0 100 100"><path d="M1 78.057l21.878-59.113h13.046l21.647 59.113h-13.219l-4.358-12.324h-21.647l-4.531 12.324h-12.816zm20.666-22.167h15.009l-7.303-22.169h-.173l-7.533 22.169zm40.841 22.167l14.518-39.4h8.631l14.344 39.4h-8.745l-2.916-7.389h-14.316l-3.03 7.389h-8.486zm13.71-14.778h9.93l-4.82-14.778h-.115l-4.995 14.778z"/></svg>

<?xml version="1.0" encoding="utf-8"?>
<!-- Generator: Adobe Illustrator 13.0.0, SVG Export Plug-In . SVG Version: 6.00 Build 14948)  -->
<!DOCTYPE svg PUBLIC "-//W3C//DTD SVG 1.1//EN" "http://www.w3.org/Graphics/SVG/1.1/DTD/svg11.dtd">
<svg version="1.1" id="Layer_1" xmlns="http://www.w3.org/2000/svg" xmlns:xlink="http://www.w3.org/1999/xlink" x="0px" y="0px"
	 width="100px" height="100px" viewBox="0 0 100 100" enable-background="new 0 0 100 100" xml:space="preserve">
<g>
	<path d="M1,78.057l21.878-59.113h13.046l21.647,59.113H44.352l-4.358-12.324H18.347l-4.531,12.324H1z M21.666,55.89h15.009
		l-7.303-22.169h-0.173L21.666,55.89z M62.507,78.057l14.518-39.4h8.631L100,78.057h-8.745l-2.916-7.389H74.023l-3.03,7.389H62.507z
		 M76.217,63.279h9.93l-4.82-14.778h-0.115L76.217,63.279z"/>
</g>
</svg>
